icons/svg/icons8/book.svg

<svg width="26" height="26" viewBox="0 0 26 26" fill="none" xmlns="http://www.w3.org/2000/svg">
<path d="M24.79 9.53699C24.214 10.948 24.79 12.211 24.79 12.211L15 24L3 20.438C3 20.438 1 19.585 1 17C1 13.424 4.081 14.236 4.081 14.236" stroke="#333333" stroke-width="2" stroke-miterlimit="10" stroke-linecap="round" stroke-linejoin="round"/>
<path d="M25.8399 4.56699C25.7209 4.22099 25.4279 3.96399 25.0719 3.88599L12.6289 1.10699C12.2549 1.02899 11.8639 1.15599 11.6119 1.44699L1.26587 12.963C1.02887 13.234 0.374875 14.281 0.171875 15.641C0.748875 14.926 1.43787 14.569 1.78587 14.662L13.9729 18.141C14.0629 18.166 14.1549 18.177 14.2439 18.177C14.5549 18.177 14.8549 18.039 15.0559 17.793L25.6609 5.57799C25.8929 5.29499 25.9609 4.91199 25.8399 4.56699ZM20.1439 7.54599L19.3469 8.48999C19.1249 8.75199 18.6119 8.88199 18.2019 8.78499L10.7739 6.97499C10.3649 6.87699 10.2109 6.58299 10.4289 6.32499L11.2279 5.37599C11.4479 5.11599 11.9619 4.98599 12.3719 5.08399L19.7999 6.89099C20.2069 6.98899 20.3629 7.28399 20.1439 7.54599Z" fill="#333333"/>
</svg>

<?xml version="1.0" encoding="utf-8"?>
<!-- Generator: Adobe Illustrator 15.0.0, SVG Export Plug-In . SVG Version: 6.00 Build 0)  -->
<!DOCTYPE svg PUBLIC "-//W3C//DTD SVG 1.1//EN" "http://www.w3.org/Graphics/SVG/1.1/DTD/svg11.dtd">
<svg version="1.1" id="Layer_1" xmlns="http://www.w3.org/2000/svg" xmlns:xlink="http://www.w3.org/1999/xlink" x="0px" y="0px"
	 width="26px" height="26px" viewBox="0 0 26 26" enable-background="new 0 0 26 26" xml:space="preserve">
<rect fill="none" width="26" height="26"/>
<path fill="none" stroke="#333333" stroke-width="2" stroke-linecap="round" stroke-linejoin="round" stroke-miterlimit="10" d="
	M24.79,9.537c-0.576,1.411,0,2.674,0,2.674L15,24L3,20.438c0,0-2-0.853-2-3.438c0-3.576,3.081-2.764,3.081-2.764"/>
<path fill="#333333" d="M25.84,4.567c-0.119-0.346-0.412-0.603-0.768-0.681L12.629,1.107c-0.374-0.078-0.765,0.049-1.017,0.34
	L1.266,12.963c-0.237,0.271-0.891,1.318-1.094,2.678c0.577-0.715,1.266-1.072,1.614-0.979l12.187,3.479
	c0.09,0.025,0.182,0.036,0.271,0.036c0.311,0,0.611-0.138,0.812-0.384L25.661,5.578C25.893,5.295,25.961,4.912,25.84,4.567z
	 M20.144,7.546L19.347,8.49c-0.222,0.262-0.735,0.392-1.145,0.295l-7.428-1.81c-0.409-0.098-0.563-0.392-0.345-0.65l0.799-0.949
	c0.22-0.26,0.734-0.39,1.144-0.292L19.8,6.891C20.207,6.989,20.363,7.284,20.144,7.546z"/>
</svg>
